X:1
T:Downey, 98.98 D
T:Downey, 98.98 D
T:Daniel Brink Towner, 1899
T:Public Domain Courtesy of the Cyber Hymnal™
C:Daniel Brink Towner, 1899
Z:Public Domain
Z:Courtesy of the Cyber Hymnal™
%%score ( 1 2 ) ( 3 4 )
L:1/8
Q:1/4=104
M:4/4
K:F
V:1 treble 
V:2 treble 
V:3 bass 
V:4 bass 
V:1
 C2 | [CF]2 [CF]>[CF] [CF]2 [CE][CF] | [B,G]2 [B,G]4 [B,C]2 | [B,G]2 [B,G]>[B,G] [B,G]2 [A,F][CG] | %4
 [CA]6 [CF]2 | [FA]2 [FA]>[FA] [_EA]2 [EG][EA] | [DB]2 [DB]4 [DB]2 | %7
 [Cc]2 [CA][CF] [DG]2 [CF]>[CE] | [CF]6 [Fc]2 | [Fc]2 [CA]>[CB] [Fc]2 [CA]>[CB] | %10
 [Fc]4 [FA]2 [Fc]2 | [Fd]2 [Fc]>[Fc] ([EB][FA]) [CG]>F | [Ec]6 [EB]2 | %13
 [FA]2 [FA][FB] [Fc]2 [_EA][EF] | (B3 c) !fermata![Fd]2 [Fd]2 | [Fc]2 [FA]F [DG]2 [CF]>[CE] | %16
 [CF]6 |] %17
V:2
 C2 | x8 | x8 | x8 | x8 | x8 | x8 | x8 | x8 | x8 | x8 | x15/2 F/ | x8 | x8 | D4 x4 | x3 F x4 | %16
 x6 |] %17
V:3
 C,2 | [F,A,]2 [F,A,]>[F,A,] [F,A,]2 [G,B,][F,A,] | [C,G,]2 [C,E,]4 [C,E,]2 | %3
 [C,E,]2 [C,E,]>[C,E,] [C,E,]2 [D,F,][C,E,] | F,6 [F,A,]2 | [F,C]2 [F,C]>[F,C] [F,C]2 [F,A,]F, | %6
 [B,,F,]2 [B,,F,]4 [B,,F,]2 | [A,,F,]2 [F,,F,][A,,F,] [B,,F,]2 [C,A,]>[C,B,] | [F,A,]6 [F,A,]2 | %9
 [F,A,]2 F,>[F,G,] [F,A,]2 F,>[F,G,] | [F,A,]4 [F,C]2 [F,A,]2 | B,2 [A,C]>[A,C] C2 [E,C]>[D,=B,] | %12
 [C,C]6 [C,C]2 | [F,C]2 F,[F,G,] [F,A,]2 [F,C][F,A,] | [B,,B,]4 !fermata![B,,B,]2 [B,,B,]2 | %15
 [A,,C]2 [F,,C][A,,C] [B,,B,]2 [C,A,]>[C,B,] | [F,A,]6 |] %17
V:4
 C,2 | x8 | x8 | x8 | F,6 x2 | x7 F, | x8 | x8 | x8 | x2 F,3/2 x F,3/2 x2 | x8 | =B,2 (G,F,) x4 | %12
 x8 | x2 F, x5 | x8 | x8 | x6 |] %17

